www/assets/icons/view_compact.svg

<svg width="24" height="24" viewBox="0 0 24 24" xmlns="http://www.w3.org/2000/svg" fill='currentColor'><path d="M4 18H6.5V15.5H4V18ZM4 13.25H6.5V10.75H4V13.25ZM4 8.5H6.5V6H4V8.5ZM17.5 6V8.5H20V6H17.5ZM13 8.5H15.5V6H13V8.5ZM17.5 18H20V15.5H17.5V18ZM17.5 13.25H20V10.75H17.5V13.25ZM8.5 18H11V15.5H8.5V18ZM13 18H15.5V15.5H13V18ZM8.5 8.5H11V6H8.5V8.5ZM13 13.25H15.5V10.75H13V13.25ZM8.5 13.25H11V10.75H8.5V13.25Z"/></svg>

<svg xmlns="http://www.w3.org/2000/svg" width="24" height="24" viewBox="0 0 24 24" fill='currentColor'><path d="M4 18h2.5v-2.5H4zm0-4.75h2.5v-2.5H4zM4 8.5h2.5V6H4zM17.5 6v2.5H20V6zM13 8.5h2.5V6H13zm4.5 9.5H20v-2.5h-2.5zm0-4.75H20v-2.5h-2.5zM8.5 18H11v-2.5H8.5zm4.5 0h2.5v-2.5H13zM8.5 8.5H11V6H8.5zm4.5 4.75h2.5v-2.5H13zm-4.5 0H11v-2.5H8.5z"/></svg>
